src/2-landmarks/desktop--take-photo.svg

<svg width="1300" height="1000" viewBox="0 0 1300 1000" fill="none" xmlns="http://www.w3.org/2000/svg"><path fill-rule="evenodd" clip-rule="evenodd" d="M850 390c11.046 0 20-8.954 20-20s-8.954-20-20-20-20 8.954-20 20 8.954 20 20 20Zm0-7c7.18 0 13-5.82 13-13s-5.82-13-13-13-13 5.82-13 13 5.82 13 13 13Z" fill="#000"/><path fill-rule="evenodd" clip-rule="evenodd" d="M800 357c0-11.046 8.954-20 20-20h60c11.046 0 20 8.954 20 20v25c0 11.046-8.954 20-20 20h-20.701l28.232 160.116-5.013.884H972c11.046 0 20 8.954 20 20s-8.954 20-20 20H679v297h183.491l-.026-.713a20 20 0 0 1 10.658-18.432l16.377-8.634-11.345-169.323c-1.258-18.78 10.747-35.896 28.832-41.109L961 646.221a28.551 28.551 0 0 1 19.424-27.053l22.076-7.447c0-18.514 1.01-44.069 3.41-69.487L984.5 560 901 484.5c-1.65-6.394-4.78-17.05-7.117-25.004-1.44-4.901-2.578-8.776-2.883-9.996-1-4 1-15.5 11-17 8-1.2 14 5.167 16 8.5l23 32.5 42.5 32.5 37.96-42.701c3.69-8.472 8.01-13.968 13.04-15.078 38.5-8.5 62 19 74 53.5 7.17 20.628 21.5 115.5 21.5 115.5l-9.5 1.5-.88 37.032a39.862 39.862 0 0 1-6.06 20.247H1136c2.76 0 5-2.239 5-5v-77.5c0-6.904 5.6-12.5 12.5-12.5s12.5 5.596 12.5 12.5V681c0 10.371-7.89 18.898-18 19.901V900h152v100H0V900h349V700.901c-10.107-1.003-18-9.53-18-19.901v-87.5c0-6.904 5.596-12.5 12.5-12.5s12.5 5.596 12.5 12.5V671a5 5 0 0 0 5 5h107.5c6.904 0 12.5 5.596 12.5 12.5s-5.596 12.5-12.5 12.5H461v199h211V603c-11.046 0-20-8.954-20-20s8.954-20 20-20h145.483l-5.015-.884L840.7 402H820c-11.046 0-20-8.954-20-20v-25Zm215.75 123.425L985 516.5l-50-39-24-35c-1.167-1.5-4.6-4.2-9-3-4.4 1.2-5.167 6.167-4.5 9l9 32L985 551l21.76-17.231c2.09-19.413 5.03-38.275 8.99-53.344ZM847.808 402h4.383l28.388 161H819.42l28.388-161ZM807 359c0-8.284 6.716-15 15-15h56c8.284 0 15 6.716 15 15v21c0 8.284-6.716 15-15 15h-56c-8.284 0-15-6.716-15-15v-21Zm301.01 324a39.861 39.861 0 0 1-13.62 8.987l-5.07 2.013H1144c8.28 0 15-6.716 15-15v-85.5c0-3.038-2.46-5.5-5.5-5.5s-5.5 2.462-5.5 5.5V673c0 5.523-4.48 10-10 10h-29.99Zm-36.33 18L1043 712.384V900h98V701h-69.32ZM1036 715.162l-45.5 18.059 14 131.5 1.2 10.545c.43 3.706-2.47 6.955-6.2 6.955V900h36.5V715.162ZM993.499 900v-22.77a4.877 4.877 0 0 0 4.842-5.461l-17.17-142.548 112.739-46.356a29.996 29.996 0 0 0 18.59-27.746v-36.898l-99.5 23-81.177 55.332a30 30 0 0 0-12.749 29.386l23.925 154.291-21.234 7.394a9.999 9.999 0 0 0-6.71 9.277l-.052 3.099h78.496Zm-85.985 0 .351-5.449a15 15 0 0 1 9.907-13.155L935 875.221l-23.59-151.772a30 30 0 0 1 12.753-29.4l75.337-51.328-91.791 26.739c-13.547 3.946-22.514 16.8-21.538 30.877l12.328 177.824-20.79 8.516a10 10 0 0 0-6.209 9.254V900h36.014ZM1122.5 610.221s-12.09-91.523-26-121.5c-17.15-36.973-45.35-36.409-57.78-34.053-4.18.793-7.72 3.273-9.69 7.045-6.54 12.485-20.03 50.266-20.03 149.508l58.5-22.5-5.83-58.713a1.54 1.54 0 0 1 3.05-.421l11.28 63.634-65 24-25.796 8.268a26.054 26.054 0 0 0-17.07 17.548 1.302 1.302 0 0 0 1.57 1.626L1011 634.221l111.5-24ZM454 900h-98V701h98v199Zm205-317c0-7.18 5.82-13 13-13h300c7.18 0 13 5.82 13 13s-5.82 13-13 13H672c-7.18 0-13-5.82-13-13ZM474 688.5a5.5 5.5 0 0 0-5.5-5.5H359c-5.523 0-10-4.477-10-10v-79.5a5.5 5.5 0 1 0-11 0V679c0 8.284 6.716 15 15 15h115.5a5.5 5.5 0 0 0 5.5-5.5Z" fill="#000"/><path fill-rule="evenodd" clip-rule="evenodd" d="M1046.51 446c1.84-.004 8.88-.506 12.65-1.914 4.51-1.684 8.75-4.937 11.67-8.613 2.11-2.652 4.28-8.036 5.32-10.829a25.09 25.09 0 0 0 1.01-3.617l4.86-23.833c.29-1.783.49-3.939.49-5.742 0-4.783-.91-9.015-2.92-13.398-2.01-4.383-4.59-8.232-8.27-11.484-3.68-3.252-8.52-6.048-13.26-7.625-4.74-1.467-6.59-1.778-11.55-1.945-4.62.038-7.3.483-11.68 1.945-5.64 1.883-8.78 3.629-13.13 7.625-4.09 3.749-6.04 6.446-8.27 11.484-2.17 4.905-2.9 8.047-2.92 13.398-.01 2.25.49 5.742.49 5.742l4.09 24.154c.19 1.122.44 2.231.8 3.31.88 2.63 2.83 7.831 5.32 10.853 3.68 4.466 6.72 6.496 12.16 8.575 4.84 1.845 13.14 1.914 13.14 1.914Zm0-7c1.48-.004 7.15-.427 10.19-1.613 3.63-1.419 7.05-4.16 9.4-7.258 1.65-2.168 3.34-6.503 4.21-8.91.4-1.135.7-2.302.93-3.486l3.88-19.862c.23-1.502.39-3.319.39-4.839 0-4.03-.73-7.596-2.35-11.29-1.62-3.694-3.7-6.937-6.66-9.677-2.97-2.741-6.87-5.097-10.69-6.426-3.81-1.236-5.3-1.498-9.3-1.639-3.73.032-5.88.407-9.41 1.639-4.54 1.587-7.07 3.058-10.58 6.426-3.29 3.159-4.86 5.431-6.66 9.677-1.75 4.134-2.33 6.781-2.35 11.29-.01 1.896.39 4.839.39 4.839l3.27 20.155c.17 1.079.4 2.145.74 3.184.74 2.271 2.27 6.477 4.22 8.951 2.96 3.764 5.41 5.474 9.8 7.226 3.89 1.555 10.58 1.613 10.58 1.613Z" fill="#000"/></svg>

<svg width="1300" height="1000" viewBox="0 0 1300 1000" fill="none" xmlns="http://www.w3.org/2000/svg">
<path fill-rule="evenodd" clip-rule="evenodd" d="M850 390C861.046 390 870 381.046 870 370C870 358.954 861.046 350 850 350C838.954 350 830 358.954 830 370C830 381.046 838.954 390 850 390ZM850 383C857.18 383 863 377.18 863 370C863 362.82 857.18 357 850 357C842.82 357 837 362.82 837 370C837 377.18 842.82 383 850 383Z" fill="black"/>
<path fill-rule="evenodd" clip-rule="evenodd" d="M800 357C800 345.954 808.954 337 820 337H880C891.046 337 900 345.954 900 357V382C900 393.046 891.046 402 880 402H859.299L887.531 562.116L882.518 563H972C983.046 563 992 571.954 992 583C992 594.046 983.046 603 972 603H679V900H862.491L862.465 899.287C862.18 891.605 866.324 884.441 873.123 880.855L889.5 872.221L878.155 702.898C876.897 684.118 888.902 667.002 906.987 661.789L961 646.221C961 633.97 968.816 623.084 980.424 619.168L1002.5 611.721C1002.5 593.207 1003.51 567.652 1005.91 542.234L984.5 560L901 484.5C899.35 478.106 896.22 467.45 893.883 459.496C892.443 454.595 891.305 450.72 891 449.5C890 445.5 892 434 902 432.5C910 431.3 916 437.667 918 441L941 473.5L983.5 506L1021.46 463.299C1025.15 454.827 1029.47 449.331 1034.5 448.221C1073 439.721 1096.5 467.221 1108.5 501.721C1115.67 522.349 1130 617.221 1130 617.221L1120.5 618.721L1119.62 655.753C1119.45 663.082 1117.29 670.039 1113.56 676H1136C1138.76 676 1141 673.761 1141 671V593.5C1141 586.596 1146.6 581 1153.5 581C1160.4 581 1166 586.596 1166 593.5V681C1166 691.371 1158.11 699.898 1148 700.901V900H1300V1000H0V900H349V700.901C338.893 699.898 331 691.371 331 681V593.5C331 586.596 336.596 581 343.5 581C350.404 581 356 586.596 356 593.5V671C356 673.761 358.239 676 361 676H468.5C475.404 676 481 681.596 481 688.5C481 695.404 475.404 701 468.5 701H461V900H672V603C660.954 603 652 594.046 652 583C652 571.954 660.954 563 672 563H817.483L812.468 562.116L840.7 402H820C808.954 402 800 393.046 800 382V357ZM1015.75 480.425L985 516.5L935 477.5L911 442.5C909.833 441 906.4 438.3 902 439.5C897.6 440.7 896.833 445.667 897.5 448.5L906.5 480.5L985 551L1006.76 533.769C1008.85 514.356 1011.79 495.494 1015.75 480.425ZM847.808 402H852.191L880.579 563H819.42L847.808 402ZM807 359C807 350.716 813.716 344 822 344H878C886.284 344 893 350.716 893 359V380C893 388.284 886.284 395 878 395H822C813.716 395 807 388.284 807 380V359ZM1108.01 683C1104.21 686.828 1099.61 689.918 1094.39 691.987L1089.32 694H1144C1152.28 694 1159 687.284 1159 679V593.5C1159 590.462 1156.54 588 1153.5 588C1150.46 588 1148 590.462 1148 593.5V673C1148 678.523 1143.52 683 1138 683H1108.01ZM1071.68 701L1043 712.384V900H1141V701H1071.68ZM1036 715.162L990.5 733.221L1004.5 864.721L1005.7 875.266C1006.13 878.972 1003.23 882.221 999.5 882.221V900H1036V715.162ZM993.499 900V877.23C996.424 877.23 998.691 874.673 998.341 871.769L981.171 729.221L1093.91 682.865C1105.16 678.24 1112.5 667.281 1112.5 655.119V618.221L1013 641.221L931.823 696.553C922.262 703.07 917.301 714.504 919.074 725.939L942.999 880.23L921.765 887.624C917.804 889.003 915.125 892.707 915.055 896.901L915.003 900H993.499ZM907.514 900L907.865 894.551C908.25 888.583 912.143 883.414 917.772 881.396L935 875.221L911.41 723.449C909.632 712.009 914.595 700.568 924.163 694.049L999.5 642.721L907.709 669.46C894.162 673.406 885.195 686.26 886.171 700.337L898.499 878.161L877.709 886.677C873.953 888.216 871.5 891.872 871.5 895.931V900H907.514ZM1122.5 610.221C1122.5 610.221 1110.41 518.698 1096.5 488.721C1079.35 451.748 1051.15 452.312 1038.72 454.668C1034.54 455.461 1031 457.941 1029.03 461.713C1022.49 474.198 1009 511.979 1009 611.221L1067.5 588.721L1061.67 530.008C1061.58 529.1 1062.29 528.312 1063.2 528.312C1063.95 528.312 1064.59 528.849 1064.72 529.587L1076 593.221L1011 617.221L985.204 625.489C976.949 628.135 970.55 634.712 968.134 643.037C967.853 644.004 968.728 644.91 969.704 644.663L1011 634.221L1122.5 610.221ZM454 900H356V701H454V900ZM659 583C659 575.82 664.82 570 672 570H972C979.18 570 985 575.82 985 583C985 590.18 979.18 596 972 596H672C664.82 596 659 590.18 659 583ZM474 688.5C474 685.462 471.538 683 468.5 683H359C353.477 683 349 678.523 349 673V593.5C349 590.462 346.538 588 343.5 588C340.463 588 338 590.462 338 593.5V679C338 687.284 344.716 694 353 694H468.5C471.538 694 474 691.538 474 688.5Z" fill="black"/>
<path fill-rule="evenodd" clip-rule="evenodd" d="M1046.51 446C1048.35 445.996 1055.39 445.494 1059.16 444.086C1063.67 442.402 1067.91 439.149 1070.83 435.473C1072.94 432.821 1075.11 427.437 1076.15 424.644C1076.58 423.468 1076.91 422.256 1077.16 421.027L1082.02 397.194C1082.31 395.411 1082.51 393.255 1082.51 391.452C1082.51 386.669 1081.6 382.437 1079.59 378.054C1077.58 373.671 1075 369.822 1071.32 366.57C1067.64 363.318 1062.8 360.522 1058.06 358.945C1053.32 357.478 1051.47 357.167 1046.51 357C1041.89 357.038 1039.21 357.483 1034.83 358.945C1029.19 360.828 1026.05 362.574 1021.7 366.57C1017.61 370.319 1015.66 373.016 1013.43 378.054C1011.26 382.959 1010.53 386.101 1010.51 391.452C1010.5 393.702 1011 397.194 1011 397.194L1015.09 421.348C1015.28 422.47 1015.53 423.579 1015.89 424.658C1016.77 427.288 1018.72 432.489 1021.21 435.511C1024.89 439.977 1027.93 442.007 1033.37 444.086C1038.21 445.931 1046.51 446 1046.51 446ZM1046.51 439C1047.99 438.996 1053.66 438.573 1056.7 437.387C1060.33 435.968 1063.75 433.227 1066.1 430.129C1067.75 427.961 1069.44 423.626 1070.31 421.219C1070.71 420.084 1071.01 418.917 1071.24 417.733L1075.12 397.871C1075.35 396.369 1075.51 394.552 1075.51 393.032C1075.51 389.002 1074.78 385.436 1073.16 381.742C1071.54 378.048 1069.46 374.805 1066.5 372.065C1063.53 369.324 1059.63 366.968 1055.81 365.639C1052 364.403 1050.51 364.141 1046.51 364C1042.78 364.032 1040.63 364.407 1037.1 365.639C1032.56 367.226 1030.03 368.697 1026.52 372.065C1023.23 375.224 1021.66 377.496 1019.86 381.742C1018.11 385.876 1017.53 388.523 1017.51 393.032C1017.5 394.928 1017.9 397.871 1017.9 397.871L1021.17 418.026C1021.34 419.105 1021.57 420.171 1021.91 421.21C1022.65 423.481 1024.18 427.687 1026.13 430.161C1029.09 433.925 1031.54 435.635 1035.93 437.387C1039.82 438.942 1046.51 439 1046.51 439Z" fill="black"/>
</svg>
